X: 141
M:4/4
L:1/8
Q:160
K:G
|: d2|g3 a bagf|g2 d4 B2|g2 B2 cBAG| A6 D2|G3 A BAGF|E4 e4|d2 B2 cBAB| G6:|

